assets/images/no_data.svg

<svg fill="none" height="20" viewBox="0 0 20 20" width="20" xmlns="http://www.w3.org/2000/svg"><path clip-rule="evenodd" d="m.909088 10.0001c0 5.0208 4.070132 9.0909 9.090902 9.0909 5.02081 0 9.09091-4.0701 9.09091-9.0909 0-5.02078-4.0701-9.09092-9.09091-9.09092-5.02077 0-9.090902 4.07014-9.090902 9.09092z" fill-rule="evenodd" stroke="#fff" stroke-dasharray="5 4" stroke-linecap="round"/><path d="m10.7434 9.90918 3.1657 3.16572v.8343h-.8343l-3.16571-3.1657-3.16572 3.1657h-.83428v-.8343l3.16571-3.16572-3.16571-3.16571v-.83429h.83428l3.16572 3.16571 3.16571-3.16571h.8343v.83429z" fill="#fff"/></svg>

<svg width="20" height="20" viewBox="0 0 20 20" fill="none" xmlns="http://www.w3.org/2000/svg"><path fill-rule="evenodd" clip-rule="evenodd" d="M0.909088 10.0001C0.909088 15.0209 4.97922 19.091 9.99999 19.091V19.091C15.0208 19.091 19.0909 15.0209 19.0909 10.0001V10.0001C19.0909 4.97932 15.0208 0.90918 9.99999 0.90918V0.90918C4.97922 0.90918 0.909088 4.97932 0.909088 10.0001V10.0001Z" stroke="#fff" stroke-linecap="round" stroke-dasharray="5 4"/><path d="M10.7434 9.90918L13.9091 13.0749V13.9092H13.0748L9.90909 10.7435L6.74337 13.9092H5.90909V13.0749L9.0748 9.90918L5.90909 6.74347V5.90918H6.74337L9.90909 9.07489L13.0748 5.90918H13.9091V6.74347L10.7434 9.90918Z" fill="#fff"/></svg>
